Numix/48/emotes/face-pirate.svg

<?xml version="1.0" encoding="UTF-8" standalone="no"?>
<!-- Created with Inkscape (http://www.inkscape.org/) -->

<svg
   xmlns:dc="http://purl.org/dc/elements/1.1/"
   xmlns:cc="http://creativecommons.org/ns#"
   xmlns:rdf="http://www.w3.org/1999/02/22-rdf-syntax-ns#"
   xmlns:svg="http://www.w3.org/2000/svg"
   xmlns="http://www.w3.org/2000/svg"
   xmlns:sodipodi="http://sodipodi.sourceforge.net/DTD/sodipodi-0.dtd"
   xmlns:inkscape="http://www.inkscape.org/namespaces/inkscape"
   version="1.1"
   width="48"
   height="48"
   id="svg4876"
   inkscape:version="0.91 r"
   sodipodi:docname="face-pirate.svg"
   inkscape:export-filename="/home/andreas/Diverses/numix-icon-theme/Numix/48/emotes/face-angel.svg.png"
   inkscape:export-xdpi="480"
   inkscape:export-ydpi="480">
  <sodipodi:namedview
     pagecolor="#ffffff"
     bordercolor="#666666"
     borderopacity="1"
     objecttolerance="10"
     gridtolerance="10"
     guidetolerance="10"
     inkscape:pageopacity="0"
     inkscape:pageshadow="2"
     inkscape:window-width="1920"
     inkscape:window-height="1056"
     id="namedview27"
     showgrid="true"
     inkscape:zoom="10.429825"
     inkscape:cx="9.2736757"
     inkscape:cy="26.41905"
     inkscape:window-x="0"
     inkscape:window-y="24"
     inkscape:window-maximized="1"
     inkscape:current-layer="svg4876"
     showguides="false">
    <inkscape:grid
       type="xygrid"
       id="grid4164" />
  </sodipodi:namedview>
  <defs
     id="defs4878" />
  <metadata
     id="metadata4881">
    <rdf:RDF>
      <cc:Work
         rdf:about="">
        <dc:format>image/svg+xml</dc:format>
        <dc:type
           rdf:resource="http://purl.org/dc/dcmitype/StillImage" />
        <dc:title />
      </cc:Work>
    </rdf:RDF>
  </metadata>
  <path
     style="color:#000000;display:inline;overflow:visible;visibility:visible;fill:#ffda5e;fill-opacity:1;fill-rule:nonzero;stroke:none;stroke-width:0.91071427;marker:none;enable-background:accumulate"
     id="path3009-1-5-0-2-1-3"
     inkscape:connector-curvature="0"
     d="m 42,24.001634 a 18,15.5 0 0 1 -35.9999998,0 18,15.5 0 1 1 35.9999998,0 z" />
  <path
     style="opacity:1;fill:#656565;fill-opacity:1;fill-rule:nonzero;stroke:none;stroke-width:2;stroke-linecap:square;stroke-linejoin:miter;stroke-miterlimit:4;stroke-dasharray:none;stroke-dashoffset:0;stroke-opacity:1"
     d="M 16.667969,18.384766 A 2.5,2.5 0 0 0 15.5,20.5 2.5,2.5 0 0 0 18,23 2.5,2.5 0 0 0 20.496094,20.595703 l -3.828125,-2.210937 z"
     id="path4140"
     inkscape:connector-curvature="0" />
  <path
     style="opacity:1;fill:#656565;fill-opacity:1;fill-rule:nonzero;stroke:none;stroke-width:2;stroke-linecap:square;stroke-linejoin:miter;stroke-miterlimit:4;stroke-dasharray:none;stroke-dashoffset:0;stroke-opacity:1"
     d="m 31.330078,18.386719 -3.826172,2.210937 A 2.5,2.5 0 0 0 30,23 2.5,2.5 0 0 0 32.5,20.5 2.5,2.5 0 0 0 31.330078,18.386719 Z"
     id="circle4142"
     inkscape:connector-curvature="0" />
  <path
     inkscape:connector-curvature="0"
     style="opacity:1;fill:#656565;fill-opacity:1;fill-rule:nonzero;stroke:none;stroke-width:1;stroke-linecap:square;stroke-linejoin:miter;stroke-miterlimit:4;stroke-dasharray:none;stroke-dashoffset:0;stroke-opacity:1"
     d="M 29.931641,28 A 6,3.5 0 0 1 24,31 l 0,2 c 3.41293,-0.0032 6.325711,-2.115546 6.894531,-5 l -0.96289,0 z"
     id="path4150-2" />
  <g
     transform="matrix(-0.04610589,0,0,0.04610589,82.522342,13.194061)"
     id="g4169">
    <g
       id="g4171">
      <g
         id="g4173" />
    </g>
  </g>
  <rect
     style="opacity:1;fill:#464646;fill-opacity:1;fill-rule:nonzero;stroke:none;stroke-width:2;stroke-linecap:square;stroke-linejoin:miter;stroke-miterlimit:4;stroke-dasharray:none;stroke-dashoffset:0;stroke-opacity:1"
     id="rect4143"
     width="9"
     height="8"
     x="26"
     y="17"
     ry="2"
     rx="2" />
  <path
     style="opacity:1;fill:#464646;fill-opacity:1;fill-rule:nonzero;stroke:none;stroke-width:2;stroke-linecap:square;stroke-linejoin:miter;stroke-miterlimit:4;stroke-dasharray:none;stroke-dashoffset:0;stroke-opacity:1"
     d="M 34.5 21 C 34.223 21 34 21.223 34 21.5 C 34 21.777 34.223 22 34.5 22 L 41.839844 22 A 18 15.5 0 0 0 41.636719 21 L 34.5 21 z "
     id="rect4145" />
  <path
     style="opacity:1;fill:#464646;fill-opacity:1;fill-rule:nonzero;stroke:none;stroke-width:2;stroke-linecap:square;stroke-linejoin:miter;stroke-miterlimit:4;stroke-dasharray:none;stroke-dashoffset:0;stroke-opacity:1"
     d="M 19.484375 9.0058594 A 18 15.5 0 0 0 18.363281 9.2988281 L 27.503906 18.439453 C 27.699775 18.635322 28.015069 18.635322 28.210938 18.439453 C 28.406806 18.243585 28.406806 17.92829 28.210938 17.732422 L 19.484375 9.0058594 z "
     id="rect4147" />
</svg>

<!-- Created with Inkscape (http://www.inkscape.org/) -->
<svg xmlns="http://www.w3.org/2000/svg" viewBox="0 0 48 48">
 <path d="m 42 24 a 18 15.5 0 0 1 -36 0 18 15.5 0 1 1 36 0 z" style="visibility:visible;fill:#ffda5e;fill-opacity:1;stroke:none;display:inline;color:#000;fill-rule:nonzero"/>
 <path d="M 16.668 18.385 A 2.5 2.5 0 0 0 15.5 20.5 2.5 2.5 0 0 0 18 23 2.5 2.5 0 0 0 20.496 20.596 l -3.828 -2.211 z" style="fill:#656565;opacity:1;fill-opacity:1;stroke:none;fill-rule:nonzero"/>
 <path d="m 31.33 18.387 -3.826 2.211 a 2.5 2.5 0 0 0 2.496 2.402 2.5 2.5 0 0 0 2.5 -2.5 2.5 2.5 0 0 0 -1.17 -2.113" style="fill:#656565;opacity:1;fill-opacity:1;stroke:none;fill-rule:nonzero"/>
 <path d="M 29.932 28 A 6 3.5 0 0 1 24 31 l 0 2 c 3.413 -0.003 6.326 -2.116 6.895 -5 l -0.963 0 z" style="fill:#656565;opacity:1;fill-opacity:1;stroke:none;fill-rule:nonzero"/>
 <rect width="9" height="8" x="26" y="17" rx="2" style="fill:#464646;opacity:1;fill-opacity:1;stroke:none;fill-rule:nonzero"/>
 <path d="m 34.5 21 c -0.277 0 -0.5 0.223 -0.5 0.5 c 0 0.277 0.223 0.5 0.5 0.5 l 7.34 0 a 18 15.5 0 0 0 -0.203 -1 l -7.137 0 z" style="fill:#464646;opacity:1;fill-opacity:1;stroke:none;fill-rule:nonzero"/>
 <path d="M 19.484 9.01 A 18 15.5 0 0 0 18.363 9.299 L 27.504 18.439 C 27.7 18.635 28.02 18.635 28.21 18.439 C 28.407 18.244 28.407 17.928 28.21 17.732 L 19.484 9.01 z" style="fill:#464646;opacity:1;fill-opacity:1;stroke:none;fill-rule:nonzero"/>
</svg>
